svg/icon/sc.svg

<svg height="32" viewBox="0 0 32 32" width="32" xmlns="http://www.w3.org/2000/svg" xmlns:xlink="http://www.w3.org/1999/xlink"><defs><linearGradient id="a" x1="50%" x2="50%" y1="0%" y2="100%"><stop offset="0" stop-color="#fff" stop-opacity=".5"/><stop offset="1" stop-opacity=".5"/></linearGradient><circle id="b" cx="16" cy="15" r="15"/><filter id="c" height="111.7%" width="111.7%" x="-5.8%" y="-4.2%"><feOffset dy=".5" in="SourceAlpha" result="shadowOffsetOuter1"/><feGaussianBlur in="shadowOffsetOuter1" result="shadowBlurOuter1" stdDeviation=".5"/><feComposite in="shadowBlurOuter1" in2="SourceAlpha" operator="out" result="shadowBlurOuter1"/><feColorMatrix in="shadowBlurOuter1" values="0 0 0 0 0   0 0 0 0 0   0 0 0 0 0  0 0 0 0.199473505 0"/></filter><path id="d" d="m16.0000108 6.5c4.6944383 0 8.4999892 3.8054751 8.4999892 8.5000718v8.4999282h-8.4999892c-4.694546 0-8.5000108-3.8055469-8.5000108-8.4999282 0-4.6945967 3.8054648-8.5000718 8.5000108-8.5000718zm5.1000797 13.6001005v-5.0229916c0-2.819357-2.2551405-5.1631374-5.0744198-5.17706582-2.8323317-.01392843-5.1396107 2.29323592-5.1256248 5.12565992.013986 2.8192852 2.3576799 5.0743975 5.1770668 5.0743975z"/><filter id="e" height="120.6%" width="120.6%" x="-10.3%" y="-7.4%"><feOffset dy=".5" in="SourceAlpha" result="shadowOffsetOuter1"/><feGaussianBlur in="shadowOffsetOuter1" result="shadowBlurOuter1" stdDeviation=".5"/><feColorMatrix in="shadowBlurOuter1" values="0 0 0 0 0   0 0 0 0 0   0 0 0 0 0  0 0 0 0.204257246 0"/></filter></defs><g fill="none" fill-rule="evenodd"><use fill="#000" filter="url(#c)" xlink:href="#b"/><use fill="#20ee82" xlink:href="#b"/><use fill="url(#a)" xlink:href="#b"/><circle cx="16" cy="15" r="14.5" stroke="#000" stroke-opacity=".097"/><use fill="#000" filter="url(#e)" xlink:href="#d"/><use fill="#fff" xlink:href="#d"/></g></svg>

<svg xmlns="http://www.w3.org/2000/svg" xmlns:xlink="http://www.w3.org/1999/xlink" width="32" height="32" viewBox="0 0 32 32">
  <defs>
    <linearGradient id="sc-c" x1="50%" x2="50%" y1="0%" y2="100%">
      <stop offset="0%" stop-color="#FFF" stop-opacity=".5"/>
      <stop offset="100%" stop-opacity=".5"/>
    </linearGradient>
    <circle id="sc-b" cx="16" cy="15" r="15"/>
    <filter id="sc-a" width="111.7%" height="111.7%" x="-5.8%" y="-4.2%" filterUnits="objectBoundingBox">
      <feOffset dy=".5" in="SourceAlpha" result="shadowOffsetOuter1"/>
      <feGaussianBlur in="shadowOffsetOuter1" result="shadowBlurOuter1" stdDeviation=".5"/>
      <feComposite in="shadowBlurOuter1" in2="SourceAlpha" operator="out" result="shadowBlurOuter1"/>
      <feColorMatrix in="shadowBlurOuter1" values="0 0 0 0 0   0 0 0 0 0   0 0 0 0 0  0 0 0 0.199473505 0"/>
    </filter>
    <path id="sc-e" d="M16.0000108,6.5 C20.6944491,6.5 24.5,10.3054751 24.5,15.0000718 L24.5,23.5 L16.0000108,23.5 C11.3054648,23.5 7.5,19.6944531 7.5,15.0000718 C7.5,10.3054751 11.3054648,6.5 16.0000108,6.5 Z M21.1000905,20.1001005 L21.1000905,15.0771089 C21.1000905,12.2577519 18.84495,9.9139715 16.0256707,9.90004308 C13.193339,9.88611465 10.88606,12.193279 10.9000459,15.025703 C10.9140319,17.8449882 13.2577258,20.1001005 16.0771127,20.1001005 L21.1000905,20.1001005 Z"/>
    <filter id="sc-d" width="120.6%" height="120.6%" x="-10.3%" y="-7.4%" filterUnits="objectBoundingBox">
      <feOffset dy=".5" in="SourceAlpha" result="shadowOffsetOuter1"/>
      <feGaussianBlur in="shadowOffsetOuter1" result="shadowBlurOuter1" stdDeviation=".5"/>
      <feColorMatrix in="shadowBlurOuter1" values="0 0 0 0 0   0 0 0 0 0   0 0 0 0 0  0 0 0 0.204257246 0"/>
    </filter>
  </defs>
  <g fill="none" fill-rule="evenodd">
    <use fill="#000" filter="url(#sc-a)" xlink:href="#sc-b"/>
    <use fill="#20EE82" xlink:href="#sc-b"/>
    <use fill="url(#sc-c)" style="mix-blend-mode:soft-light" xlink:href="#sc-b"/>
    <circle cx="16" cy="15" r="14.5" stroke="#000" stroke-opacity=".097"/>
    <g>
      <use fill="#000" filter="url(#sc-d)" xlink:href="#sc-e"/>
      <use fill="#FFF" xlink:href="#sc-e"/>
    </g>
  </g>
</svg>
